X:1
T:The Chippewa Girl
M:6/8
L:1/8
K:F
c/2-B/2| A c3/2 C/2 F A3/2 F/2| GFE F2 F| FAc e d3/2 B/2| GBd c2c/2-B/2|\
 AB c/2c/2 e d3/2 B/2| GBd c2 c/2B/2| A c3/2 C/2 FA F/2F/2| GFE F2||\
